components/Common/Svg/svgs/titledVue.svg

<svg
  width="96"
  height="137"
  viewBox="0 0 96 137"
  fill="none"
  xmlns="http://www.w3.org/2000/svg"
>
  <path
    d="M21.142 114.31L25.012 125.182L28.936 114.31H30.718L26.056 127H23.986L19.342 114.31H21.142ZM41.1566 117.118V127H39.5186V124.678C39.2666 125.482 38.8166 126.1 38.1686 126.532C37.5326 126.952 36.7886 127.162 35.9366 127.162C34.7966 127.162 33.8726 126.796 33.1646 126.064C32.4566 125.32 32.1026 124.258 32.1026 122.878V117.118H33.7406V122.716C33.7406 123.7 33.9926 124.462 34.4966 125.002C35.0006 125.53 35.6846 125.794 36.5486 125.794C37.4486 125.794 38.1686 125.506 38.7086 124.93C39.2486 124.342 39.5186 123.49 39.5186 122.374V117.118H41.1566ZM52.8708 121.51C52.8708 121.858 52.8468 122.158 52.7988 122.41H44.8968C44.9328 123.538 45.2508 124.384 45.8508 124.948C46.4628 125.512 47.2068 125.794 48.0828 125.794C48.8748 125.794 49.5348 125.596 50.0628 125.2C50.6028 124.792 50.9328 124.252 51.0528 123.58H52.7988C52.6788 124.264 52.4088 124.876 51.9888 125.416C51.5808 125.956 51.0468 126.376 50.3868 126.676C49.7268 126.976 48.9828 127.126 48.1548 127.126C47.2068 127.126 46.3668 126.922 45.6348 126.514C44.9028 126.106 44.3268 125.524 43.9068 124.768C43.4988 124 43.2948 123.1 43.2948 122.068C43.2948 121.036 43.4988 120.136 43.9068 119.368C44.3268 118.6 44.9028 118.012 45.6348 117.604C46.3668 117.196 47.2068 116.992 48.1548 116.992C49.1148 116.992 49.9488 117.196 50.6568 117.604C51.3768 118.012 51.9228 118.558 52.2948 119.242C52.6788 119.926 52.8708 120.682 52.8708 121.51ZM51.2148 121.618C51.2508 120.886 51.1308 120.274 50.8548 119.782C50.5788 119.29 50.2008 118.924 49.7208 118.684C49.2408 118.444 48.7188 118.324 48.1548 118.324C47.2548 118.324 46.4988 118.606 45.8868 119.17C45.2748 119.722 44.9448 120.538 44.8968 121.618H51.2148ZM65.6345 114.31V123.742C65.6345 124.786 65.3345 125.614 64.7345 126.226C64.1465 126.826 63.3185 127.126 62.2505 127.126C61.0985 127.126 60.1925 126.79 59.5325 126.118C58.8845 125.434 58.5605 124.48 58.5605 123.256H60.1985C60.1985 123.988 60.3605 124.57 60.6845 125.002C61.0085 125.422 61.5065 125.632 62.1785 125.632C62.8145 125.632 63.2765 125.452 63.5645 125.092C63.8525 124.732 63.9965 124.282 63.9965 123.742V114.31H65.6345ZM76.2072 123.706C76.2072 124.306 76.0632 124.864 75.7752 125.38C75.4872 125.896 75.0492 126.316 74.4612 126.64C73.8732 126.964 73.1472 127.126 72.2832 127.126C71.4432 127.126 70.6932 126.976 70.0332 126.676C69.3852 126.364 68.8632 125.944 68.4672 125.416C68.0832 124.876 67.8612 124.264 67.8012 123.58H69.5472C69.5832 123.94 69.7032 124.294 69.9072 124.642C70.1232 124.978 70.4232 125.26 70.8072 125.488C71.2032 125.704 71.6772 125.812 72.2292 125.812C72.9492 125.812 73.5012 125.62 73.8852 125.236C74.2692 124.852 74.4612 124.36 74.4612 123.76C74.4612 123.244 74.3232 122.824 74.0472 122.5C73.7832 122.176 73.4532 121.924 73.0572 121.744C72.6612 121.552 72.1212 121.348 71.4372 121.132C70.6332 120.868 69.9852 120.622 69.4932 120.394C69.0132 120.154 68.5992 119.8 68.2512 119.332C67.9152 118.864 67.7472 118.246 67.7472 117.478C67.7472 116.818 67.9032 116.236 68.2152 115.732C68.5392 115.228 68.9952 114.838 69.5832 114.562C70.1832 114.286 70.8852 114.148 71.6892 114.148C72.9372 114.148 73.9272 114.454 74.6592 115.066C75.3912 115.666 75.8172 116.434 75.9372 117.37H74.1732C74.0772 116.866 73.8192 116.422 73.3992 116.038C72.9792 115.654 72.4092 115.462 71.6892 115.462C71.0292 115.462 70.5012 115.636 70.1052 115.984C69.7092 116.32 69.5112 116.8 69.5112 117.424C69.5112 117.916 69.6372 118.318 69.8892 118.63C70.1532 118.93 70.4772 119.17 70.8612 119.35C71.2452 119.518 71.7732 119.71 72.4452 119.926C73.2612 120.19 73.9152 120.442 74.4072 120.682C74.9112 120.922 75.3372 121.288 75.6852 121.78C76.0332 122.26 76.2072 122.902 76.2072 123.706Z"
    fill="#A0A0A0"
  ></path>
  <g clip-path="url(#clip0)">
    <path
      d="M56.0818 17.0003L47.9991 30.9999L39.9165 17.0003H13L47.9991 77.6212L82.9983 17.0003H56.0818Z"
      fill="#A3A3A3"
    ></path>
    <path
      d="M56.0821 17.0003L47.9995 30.9999L39.9168 17.0003H27L47.9995 53.3721L68.999 17.0003H56.0821Z"
      fill="#6A6A6A"
    ></path>
  </g>
  <defs>
    <clipPath id="clip0">
      <rect
        width="70"
        height="60.6216"
        fill="white"
        transform="translate(13 17)"
      ></rect>
    </clipPath>
  </defs>
</svg>

<svg width="96" height="137" viewBox="0 0 96 137" fill="none" xmlns="http://www.w3.org/2000/svg"><path d="m21.142 114.31 3.87 10.872 3.924-10.872h1.782L26.056 127h-2.07l-4.644-12.69h1.8Zm20.015 2.808V127h-1.638v-2.322c-.252.804-.702 1.422-1.35 1.854-.636.42-1.38.63-2.232.63-1.14 0-2.064-.366-2.772-1.098-.708-.744-1.062-1.806-1.062-3.186v-5.76h1.638v5.598c0 .984.252 1.746.756 2.286.504.528 1.188.792 2.052.792.9 0 1.62-.288 2.16-.864.54-.588.81-1.44.81-2.556v-5.256h1.638Zm11.714 4.392c0 .348-.024.648-.072.9h-7.902c.036 1.128.354 1.974.954 2.538.612.564 1.356.846 2.232.846.792 0 1.452-.198 1.98-.594.54-.408.87-.948.99-1.62h1.746a4.098 4.098 0 0 1-.81 1.836c-.408.54-.942.96-1.602 1.26-.66.3-1.404.45-2.232.45-.948 0-1.788-.204-2.52-.612a4.399 4.399 0 0 1-1.728-1.746c-.408-.768-.612-1.668-.612-2.7 0-1.032.204-1.932.612-2.7a4.37 4.37 0 0 1 1.728-1.764c.732-.408 1.572-.612 2.52-.612.96 0 1.794.204 2.502.612.72.408 1.266.954 1.638 1.638.384.684.576 1.44.576 2.268Zm-1.656.108c.036-.732-.084-1.344-.36-1.836a2.632 2.632 0 0 0-1.134-1.098 3.452 3.452 0 0 0-1.566-.36c-.9 0-1.656.282-2.268.846-.612.552-.942 1.368-.99 2.448h6.318Zm14.42-7.308v9.432c0 1.044-.3 1.872-.9 2.484-.588.6-1.416.9-2.484.9-1.152 0-2.058-.336-2.718-1.008-.648-.684-.973-1.638-.973-2.862H60.2c0 .732.162 1.314.486 1.746.323.42.822.63 1.493.63.637 0 1.099-.18 1.387-.54.288-.36.431-.81.431-1.35v-9.432h1.639Zm10.572 9.396c0 .6-.144 1.158-.432 1.674-.288.516-.726.936-1.314 1.26-.588.324-1.314.486-2.178.486-.84 0-1.59-.15-2.25-.45a4.187 4.187 0 0 1-1.566-1.26 3.661 3.661 0 0 1-.666-1.836h1.746a2.6 2.6 0 0 0 .36 1.062c.216.336.516.618.9.846.396.216.87.324 1.422.324.72 0 1.272-.192 1.656-.576.384-.384.576-.876.576-1.476 0-.516-.138-.936-.414-1.26a2.695 2.695 0 0 0-.99-.756c-.396-.192-.936-.396-1.62-.612a18.488 18.488 0 0 1-1.944-.738 3.483 3.483 0 0 1-1.242-1.062c-.336-.468-.504-1.086-.504-1.854 0-.66.156-1.242.468-1.746.324-.504.78-.894 1.368-1.17.6-.276 1.302-.414 2.106-.414 1.248 0 2.238.306 2.97.918a3.445 3.445 0 0 1 1.278 2.304h-1.764c-.096-.504-.354-.948-.774-1.332-.42-.384-.99-.576-1.71-.576-.66 0-1.188.174-1.584.522-.396.336-.594.816-.594 1.44 0 .492.126.894.378 1.206.264.3.588.54.972.72.384.168.912.36 1.584.576.816.264 1.47.516 1.962.756.504.24.93.606 1.278 1.098.348.48.522 1.122.522 1.926Z" fill="#A0A0A0"/><g clip-path="url(#a)"><path d="m56.082 17-8.083 14-8.083-14H13l35 60.621 34.998-60.62H56.082Z" fill="#A3A3A3"/><path d="M56.082 17 48 31l-8.082-14H27l21 36.372L68.998 17H56.082Z" fill="#6A6A6A"/></g><defs><clipPath id="a"><path fill="#fff" transform="translate(13 17)" d="M0 0h70v60.622H0z"/></clipPath></defs></svg>
